svg/emoji_u1f9e9.svg

<svg width="128" height="128" viewBox="0 0 128 128" fill="none" xmlns="http://www.w3.org/2000/svg">
<path d="M32.74 59.8C32.32 59.38 6.74998 53.75 6.74998 53.75C6.74998 53.75 5.25998 56.14 5.68998 57.55C5.92998 58.34 11.51 64.83 17.25 70.8C21.78 75.52 26.93 80.32 27.68 83.06C28.83 87.28 28.95 94.05 28.95 94.05L12.28 104.23C12.28 104.23 14.32 114.61 27.54 114.2C39.89 113.82 40.53 100.74 44.45 100.67C45.11 100.66 46.02 100.43 47.65 102.18C51.69 106.52 59.25 114.9 61.78 117.44C65.16 120.82 67.56 124.2 68.83 124.06C70.1 123.92 80.81 114.34 83.91 111.38C87.01 108.42 89.83 104.9 89.83 101.94C89.83 98.98 85.46 96.73 85.46 96.73L61.36 99.55L32.74 59.8Z" fill="#566D56" style="fill:#566D56;fill:color(display-p3 0.3373 0.4275 0.3373);fill-opacity:1;"/>
<path d="M103.62 21.62C104.04 21.62 114.75 16.27 114.75 16.27C114.75 16.27 120.25 27.4 113.2 33.74C106.15 40.08 104.6 36.49 101.22 40.22C98.6401 43.07 99.9501 48.96 99.9501 48.96L120.9 69.1C120.9 69.1 122.07 71.23 121.23 72.78C120.63 73.88 113.58 81.77 108.12 87.44C105.66 89.99 102.23 90.85 100.37 90.4C95.7201 89.27 95.0201 85.61 94.1701 79.13C93.3201 72.65 87.7401 72.75 85.7101 73.07C81.4301 73.75 78.6401 76.25 78.6401 76.25C78.6401 76.25 53.4401 45.88 53.7201 45.03C54.0001 44.18 54.9901 37.84 52.0301 35.17C49.0701 32.49 43.1601 31.13 40.9001 29.58C38.6501 28.03 38.3501 25.08 38.7601 22.22C39.1701 19.36 57.3901 19.39 57.3901 19.39C57.3901 19.39 88.8101 36.72 88.9601 36.02C89.1001 35.28 103.62 21.62 103.62 21.62Z" fill="#566D56" style="fill:#566D56;fill:color(display-p3 0.3362 0.4292 0.3362);fill-opacity:1;"/>
<path d="M88.1201 24.99C88.8801 22.21 88.0101 15.38 93.3201 10.86C98.6301 6.33996 106.89 6.89996 111.86 11.65C116.83 16.4 117.63 25.33 111.75 31.21C105.87 37.09 103.16 33.81 99.8801 36.98C96.6001 40.15 97.1701 42.75 99.2001 44.67C101.24 46.59 121.48 67.74 120.91 69.09C120.34 70.44 106.55 86.05 104.29 87.18C102.03 88.31 98.0701 88.2 97.2801 84.47C96.4901 80.74 97.8501 73.28 92.1901 71.35C86.5401 69.43 84.0501 71.01 78.5101 76.89C72.9701 82.77 70.4801 89.21 75.0001 92.49C79.5201 95.77 85.1801 94.41 87.4401 98.26C89.7001 102.11 86.3101 105.61 80.3201 111.15C74.3301 116.69 69.6901 121.21 68.9001 120.65C68.1101 120.08 50.9201 101.88 49.2301 99.96C47.5301 98.04 44.2501 96.34 41.0901 99.28C37.9201 102.22 37.3601 111.83 24.0201 111.83C10.6801 111.83 9.08006 97.36 13.8301 91.37C18.5801 85.38 29.0901 84.81 29.3201 80.74C29.4201 78.87 23.6501 73.83 18.4701 68.42C12.3801 62.05 6.72006 55.3 6.48006 54.51C6.03006 53.04 19.1401 40.15 21.6301 38.34C24.1201 36.53 26.9401 37.66 28.3001 39.13C29.6601 40.6 30.0001 45.12 31.1301 47.72C32.2601 50.32 37.5701 61.63 50.3501 48.74C63.0101 35.96 51.0301 30.42 46.9601 29.29C42.8901 28.16 39.9601 27.79 38.8201 23.64C37.9201 20.36 42.8901 16.52 48.0901 11.54C53.2901 6.55996 56.3401 3.95996 57.7001 3.95996C59.0601 3.95996 77.2601 23.52 79.6401 25.78C82.0201 28.04 83.4801 28.61 85.1801 28.15C86.8701 27.71 87.7801 26.24 88.1201 24.99Z" fill="url(#paint0_radial_2199_2355)" style=""/>
<defs>
<radialGradient id="paint0_radial_2199_2355" cx="0" cy="0" r="1" gradientUnits="userSpaceOnUse" gradientTransform="translate(62.1724 -28.3001) scale(119.225 119.225)">
<stop offset="0.5082" stop-color="#B7D118" style="stop-color:#B7D118;stop-color:color(display-p3 0.7176 0.8196 0.0941);stop-opacity:1;"/>
<stop offset="0.5721" stop-color="#B2D019" style="stop-color:#B2D019;stop-color:color(display-p3 0.6980 0.8157 0.0980);stop-opacity:1;"/>
<stop offset="0.6427" stop-color="#A5CD1D" style="stop-color:#A5CD1D;stop-color:color(display-p3 0.6471 0.8039 0.1137);stop-opacity:1;"/>
<stop offset="0.7167" stop-color="#8FC922" style="stop-color:#8FC922;stop-color:color(display-p3 0.5608 0.7882 0.1333);stop-opacity:1;"/>
<stop offset="0.7928" stop-color="#70C22A" style="stop-color:#70C22A;stop-color:color(display-p3 0.4392 0.7608 0.1647);stop-opacity:1;"/>
<stop offset="0.8707" stop-color="#48BA34" style="stop-color:#48BA34;stop-color:color(display-p3 0.2824 0.7294 0.2039);stop-opacity:1;"/>
<stop offset="0.9489" stop-color="#18B040" style="stop-color:#18B040;stop-color:color(display-p3 0.0941 0.6902 0.2510);stop-opacity:1;"/>
<stop offset="0.9813" stop-color="#02AB46" style="stop-color:#02AB46;stop-color:color(display-p3 0.0078 0.6706 0.2745);stop-opacity:1;"/>
</radialGradient>
</defs>
</svg>

<?xml version="1.0" encoding="utf-8"?>
<!-- Generator: Adobe Illustrator 25.2.3, SVG Export Plug-In . SVG Version: 6.00 Build 0)  -->
<svg version="1.1" id="Layer_2" xmlns="http://www.w3.org/2000/svg" xmlns:xlink="http://www.w3.org/1999/xlink" x="0px" y="0px"
	 viewBox="0 0 128 128" style="enable-background:new 0 0 128 128;" xml:space="preserve">
<path style="fill:#B0B0AF;" d="M32.74,59.8c-0.42-0.42-25.99-6.05-25.99-6.05s-1.49,2.39-1.06,3.8c0.24,0.79,5.82,7.28,11.56,13.25
	c4.53,4.72,9.68,9.52,10.43,12.26c1.15,4.22,1.27,10.99,1.27,10.99l-16.67,10.18c0,0,2.04,10.38,15.26,9.97
	c12.35-0.38,12.99-13.46,16.91-13.53c0.66-0.01,1.57-0.24,3.2,1.51c4.04,4.34,11.6,12.72,14.13,15.26c3.38,3.38,5.78,6.76,7.05,6.62
	c1.27-0.14,11.98-9.72,15.08-12.68c3.1-2.96,5.92-6.48,5.92-9.44c0-2.96-4.37-5.21-4.37-5.21l-24.1,2.82L32.74,59.8z"/>
<path style="fill:#B0B0AF;" d="M103.62,21.62c0.42,0,11.13-5.35,11.13-5.35s5.5,11.13-1.55,17.47c-7.05,6.34-8.6,2.75-11.98,6.48
	c-2.58,2.85-1.27,8.74-1.27,8.74l20.95,20.14c0,0,1.17,2.13,0.33,3.68c-0.6,1.1-7.65,8.99-13.11,14.66
	c-2.46,2.55-5.89,3.41-7.75,2.96c-4.65-1.13-5.35-4.79-6.2-11.27c-0.85-6.48-6.43-6.38-8.46-6.06c-4.28,0.68-7.07,3.18-7.07,3.18
	s-25.2-30.37-24.92-31.22c0.28-0.85,1.27-7.19-1.69-9.86c-2.96-2.68-8.87-4.04-11.13-5.59c-2.25-1.55-2.55-4.5-2.14-7.36
	s18.63-2.83,18.63-2.83s31.42,17.33,31.57,16.63C89.1,35.28,103.62,21.62,103.62,21.62z"/>
<radialGradient id="SVGID_1_" cx="62.1723" cy="-28.3001" r="119.2249" gradientUnits="userSpaceOnUse">
	<stop  offset="0.5082" style="stop-color:#B7D118"/>
	<stop  offset="0.5721" style="stop-color:#B2D019"/>
	<stop  offset="0.6427" style="stop-color:#A5CD1D"/>
	<stop  offset="0.7167" style="stop-color:#8FC922"/>
	<stop  offset="0.7928" style="stop-color:#70C22A"/>
	<stop  offset="0.8707" style="stop-color:#48BA34"/>
	<stop  offset="0.9489" style="stop-color:#18B040"/>
	<stop  offset="0.9813" style="stop-color:#02AB46"/>
</radialGradient>
<path style="fill:url(#SVGID_1_);" d="M88.12,24.99c0.76-2.78-0.11-9.61,5.2-14.13s13.57-3.96,18.54,0.79s5.77,13.68-0.11,19.56
	c-5.88,5.88-8.59,2.6-11.87,5.77c-3.28,3.17-2.71,5.77-0.68,7.69c2.04,1.92,22.28,23.07,21.71,24.42s-14.36,16.96-16.62,18.09
	c-2.26,1.13-6.22,1.02-7.01-2.71c-0.79-3.73,0.57-11.19-5.09-13.12c-5.65-1.92-8.14-0.34-13.68,5.54
	c-5.54,5.88-8.03,12.32-3.51,15.6c4.52,3.28,10.18,1.92,12.44,5.77s-1.13,7.35-7.12,12.89c-5.99,5.54-10.63,10.06-11.42,9.5
	c-0.79-0.57-17.98-18.77-19.67-20.69c-1.7-1.92-4.98-3.62-8.14-0.68c-3.17,2.94-3.73,12.55-17.07,12.55S9.08,97.36,13.83,91.37
	s15.26-6.56,15.49-10.63c0.1-1.87-5.67-6.91-10.85-12.32C12.38,62.05,6.72,55.3,6.48,54.51c-0.45-1.47,12.66-14.36,15.15-16.17
	s5.31-0.68,6.67,0.79c1.36,1.47,1.7,5.99,2.83,8.59c1.13,2.6,6.44,13.91,19.22,1.02c12.66-12.78,0.68-18.32-3.39-19.45
	c-4.07-1.13-7-1.5-8.14-5.65c-0.9-3.28,4.07-7.12,9.27-12.1s8.25-7.58,9.61-7.58c1.36,0,19.56,19.56,21.94,21.82
	s3.84,2.83,5.54,2.37C86.87,27.71,87.78,26.24,88.12,24.99z"/>
</svg>
